svgs/thin/coffee-beans.svg

<svg xmlns="http://www.w3.org/2000/svg" viewBox="0 0 512 512"><!--! Font Awesome Pro 6.3.0 by @fontawesome - https://fontawesome.com License - https://fontawesome.com/license (Commercial License) Copyright 2023 Fonticons, Inc. --><path d="M170.2 196.4C162 193.3 144.4 192 127.3 192c-16.83 0-33.06 1.297-39.01 3.449c-58.92 21.33-88.37 88.34-88.32 156.2c.0449 66.77 28.7 134.1 85.8 155.9C93.97 510.7 111.6 512 128.7 512c16.83 0 33.06-1.297 39.01-3.451c58.92-21.33 88.37-88.34 88.32-156.2C255.1 285.6 227.3 218.2 170.2 196.4zM125.9 495.9c-17.8-.1699-30.3-1.785-34.37-3.336C35.83 471.4 16.04 403.4 16 351.6C15.96 299.5 36.31 231.3 93.75 210.5C96.11 209.7 104.8 208.6 117.2 208.2c-29.02 55.02-28.17 108.2 3.465 154.5C149.7 405.2 151.3 451.2 125.9 495.9zM162.2 493.5c-1.994 .6797-8.686 1.549-18.13 2.062c23.96-47.75 20.71-96.52-10.28-141.9C97.04 299.7 113.6 245.5 135.3 208.2C150.2 208.6 160.8 210 164.5 211.4C220.2 232.6 239.1 300.6 240 352.4C240 404.5 219.7 472.7 162.2 493.5zM455.6 56.93C421.8 23.23 377.1 0 334.4 0c-14.98 0-29.73 2.852-43.69 9.106c-15.31 6.859-51.31 44.04-56.53 55.17C208.5 119 234.1 184.8 280.4 231c33.74 33.7 78.42 56.93 121.2 56.93c14.98 0 29.73-2.852 43.69-9.106c15.31-6.859 51.31-44.04 56.53-55.17C527.5 168.1 501.9 103.2 455.6 56.93zM438.8 264.3c-11.42 5.113-23.91 7.707-37.15 7.707c-36.04 0-77.11-19.53-109.9-52.25c-35.43-35.38-67.98-95.55-43.12-148.6c1.545-3.104 7.02-9.674 13.86-16.97c17.87 56.98 54.72 92.49 107.7 102.5c48.59 9.143 80.92 39.18 94.07 86.67C454.5 252.9 444.2 261.8 438.8 264.3zM487.4 216.9c-1.266 2.543-5.299 7.5-10.42 13.19c-16.36-48.58-51.82-79.46-103.8-89.23c-61.52-11.55-87.14-59.46-97.9-99.55c8.625-8.221 17.17-15.44 21.97-17.59c11.42-5.113 23.91-7.707 37.15-7.707c36.04 0 77.11 19.53 109.9 52.25C479.7 103.6 512.2 163.8 487.4 216.9z"/></svg>

<svg xmlns="http://www.w3.org/2000/svg" viewBox="0 0 512 512"><!-- Font Awesome Pro 6.0.0-alpha2 by @fontawesome - https://fontawesome.com License - https://fontawesome.com/license (Commercial License) --><path d="M170.201 196.446C162.025 193.331 144.379 192.001 127.336 192.001C110.51 192.001 94.273 193.298 88.322 195.45C29.402 216.782 -0.047 283.788 0 351.638C0.045 418.404 28.699 485.789 85.799 507.553C93.975 510.67 111.623 512 128.664 512C145.49 512 161.725 510.703 167.676 508.549C226.6 487.221 256.047 420.213 256 352.363C255.955 285.597 227.301 218.212 170.201 196.446ZM125.867 495.937C108.068 495.768 95.566 494.152 91.498 492.602C35.828 471.385 16.035 403.398 16 351.626C15.965 299.523 36.311 231.298 93.75 210.503C96.106 209.7 104.795 208.624 117.191 208.204C88.172 263.222 89.023 316.402 120.656 362.658C149.717 405.232 151.334 451.22 125.867 495.937ZM162.248 493.498C160.254 494.178 153.563 495.047 144.119 495.56C168.076 447.81 164.834 399.039 133.844 353.658C97.037 299.732 113.621 245.534 135.272 208.179C150.248 208.587 160.846 210.003 164.502 211.397C220.172 232.618 239.965 300.603 240 352.372C240.035 404.478 219.69 472.705 162.248 493.498ZM455.551 56.93C421.809 23.233 377.129 0 334.373 0C319.389 0 304.647 2.852 290.686 9.106C275.379 15.965 239.371 53.147 234.16 64.274C208.522 119.01 234.139 184.8 280.447 231.046C314.191 264.743 358.871 287.976 401.625 287.976C416.609 287.976 431.354 285.124 445.313 278.87C460.621 272.011 496.627 234.829 501.838 223.702C527.481 168.965 501.861 103.176 455.551 56.93ZM438.772 264.269C427.356 269.382 414.857 271.976 401.625 271.976C365.59 271.976 324.516 252.442 291.754 219.723C256.32 184.341 223.772 124.174 248.637 71.088C250.182 67.985 255.656 61.414 262.494 54.117C280.365 111.096 317.213 146.606 370.219 156.594C418.807 165.737 451.141 195.778 464.293 243.261C454.533 252.858 444.236 261.819 438.772 264.269ZM487.361 216.888C486.096 219.431 482.063 224.388 476.94 230.073C460.58 181.495 425.115 150.618 373.156 140.844C311.637 129.292 286.016 81.385 275.254 41.297C283.879 33.076 292.422 25.859 297.227 23.707C308.643 18.594 321.141 16 334.373 16C370.41 16 411.482 35.533 444.244 68.25C479.68 103.637 512.231 163.803 487.361 216.888Z"/></svg>
